src/dsmComponents/Icons/passenger-16px.svg

<?xml version="1.0" encoding="UTF-8"?>
<svg width="13px" height="16px" viewBox="0 0 13 16" version="1.1" xmlns="http://www.w3.org/2000/svg" xmlns:xlink="http://www.w3.org/1999/xlink">
    <!-- Generator: Sketch 59.1 (86144) - https://sketch.com -->
    <title>passenger-16px</title>
    <desc>Created with Sketch.</desc>
    <defs>
        <path d="M9.69334501,14.6765383 C10.0521568,14.6765383 10.3437891,14.9728199 10.3437891,15.3380041 C10.3437891,15.7037184 10.0521568,16 9.69334501,16 L9.69334501,16 L3.69926088,16 C3.3399283,16 3.04881682,15.7037184 3.04881682,15.3380041 C3.04881682,14.9728199 3.3399283,14.6765383 3.69926088,14.6765383 L3.69926088,14.6765383 Z M12.3562599,2.57086542 C12.5187407,2.4293499 12.7661073,2.44790062 12.9061949,2.61538716 C13.0468033,2.78234369 13.027014,3.03304348 12.8624501,3.17561905 L12.8624501,3.17561905 L1.44973474,13.0854161 L12.609355,13.0854161 C12.8249545,13.0854161 13,13.2635031 13,13.4829317 C13,13.7023602 12.8249545,13.8804472 12.609355,13.8804472 L12.609355,13.8804472 L0.390484777,13.8804472 C0.226962412,13.8804472 0.0806255192,13.7765631 0.0238613862,13.620207 C-0.0323819749,13.464381 0.0129251771,13.2884141 0.137389652,13.1802899 L0.137389652,13.1802899 L2.97038858,10.7204638 L2.79540924,7.4931677 C2.79540924,7.37603313 2.80999085,7.26101863 2.83394635,7.14865424 C2.84904874,7.07657143 2.8756081,7.00819876 2.89956361,6.93876605 C2.91154136,6.90590476 2.92039448,6.87145342 2.93445532,6.83912215 C2.97299244,6.74848861 3.02142422,6.66421532 3.07506373,6.58153209 C3.0792299,6.57570186 3.08235453,6.56987164 3.08652071,6.56404141 C3.1828635,6.41987578 3.29430868,6.2847205 3.43595863,6.17500621 C4.06348872,5.6884472 5.15190191,5.08846377 6.7011982,5.08846377 C7.59588426,5.08846377 8.33538031,5.28934161 8.92281097,5.55223188 L8.92281097,5.55223188 Z M10.2420823,6.46800166 C10.2712455,6.50722319 10.3030126,6.54432464 10.329572,6.58566625 C10.3394667,6.60050683 10.3493613,6.61640745 10.3587352,6.63177805 C10.4014385,6.70280083 10.4404964,6.77435362 10.4722635,6.85120663 C10.4899697,6.89307826 10.502989,6.93653996 10.5170499,6.98000166 C10.5357977,7.03777391 10.5566285,7.09448613 10.5691271,7.15437847 C10.5925618,7.26409275 10.6066226,7.37645714 10.6066226,7.49094161 C10.6066226,7.49147164 10.6071434,7.49253168 10.6071434,7.4930617 L10.6071434,7.4930617 L10.3373836,12.287629 L3.59234642,12.287629 Z M6.70130236,0 C7.89959841,0 8.87083794,0.949267081 8.87083794,2.12008282 C8.87083794,3.29089855 7.89959841,4.24016563 6.70130236,4.24016563 C5.50248553,4.24016563 4.53124601,3.29089855 4.53124601,2.12008282 C4.53124601,0.949267081 5.50248553,0 6.70130236,0 Z" id="path-1"></path>
    </defs>
    <g id="Final" stroke="none" stroke-width="1" fill="none" fill-rule="evenodd">
        <g id="All-Nucleo-Icons" transform="translate(-320.000000, -7186.000000)">
            <g id="Solo/Nucleo/16px/passenger" transform="translate(315.000000, 7182.000000)">
                <g id="Colour/Default-Colour" transform="translate(5.000000, 4.000000)">
                    <mask id="mask-2" fill="white">
                        <use xlink:href="#path-1"></use>
                    </mask>
                    <use id="Mask" fill="#737373" xlink:href="#path-1"></use>
                    <g id="colour/neutral/chia" mask="url(#mask-2)" fill="#737373">
                        <g transform="translate(-25.000000, -24.000000)" id="Colour">
                            <rect x="0" y="0" width="64" height="64"></rect>
                        </g>
                    </g>
                </g>
            </g>
        </g>
    </g>
</svg>

<svg width="13" height="16" xmlns="http://www.w3.org/2000/svg" xmlns:xlink="http://www.w3.org/1999/xlink"><defs><path d="M9.693 14.677c.36 0 .65.296.65.661a.656.656 0 01-.65.662H3.7a.656.656 0 01-.65-.662c0-.365.29-.661.65-.661zM12.356 2.57a.386.386 0 01.55.044.401.401 0 01-.044.56L1.45 13.086h11.16c.215 0 .39.179.39.398 0 .22-.175.397-.39.397H.39a.391.391 0 01-.366-.26.403.403 0 01.113-.44l2.833-2.46-.175-3.227c0-.117.015-.232.039-.344.015-.072.042-.14.066-.21.012-.033.02-.068.034-.1.039-.09.087-.175.141-.257l.012-.018c.096-.144.207-.28.349-.389.627-.487 1.716-1.087 3.265-1.087a5.39 5.39 0 012.222.464zm-2.114 3.897c.03.04.061.076.088.118l.029.046c.042.07.081.142.113.22.018.041.031.085.045.128.019.058.04.114.052.174.024.11.038.222.038.337v.002l-.27 4.795H3.592zM6.702 0C7.9 0 8.87.95 8.87 2.12c0 1.17-.971 2.12-2.17 2.12-1.199 0-2.17-.95-2.17-2.12C4.531.95 5.502 0 6.701 0z" id="passenger-16px_svg__a"/></defs><use fill="#737373" xlink:href="#passenger-16px_svg__a" fill-rule="evenodd"/></svg>
